TCanvas/fit3_5.svg

<svg xmlns="http://www.w3.org/2000/svg" viewBox="0 0 1200 800" preserveAspectRatio="none" width="1200" height="800">
 <path d="M0,0H1200V800H0Z" style="fill: white;"></path>
 <g>
  <g transform="translate(120,80)">
   <path d="M0,0H960V640H0Z" style="fill: white; stroke: black; stroke-width: 1;"></path>
   <svg x="0" y="0" overflow="hidden" width="960" height="640" viewBox="0 0 960 640">
    <g>
     <path d="M82,639h14M89,639v1M96,638h14M103,636v4M110,636h14M117,632v8M123,633h14M130,627v13M137,633h14M144,627v13M151,620h14M158,600v40M165,607h14M172,574v66M178,588h14M185,537v103M192,547h14M199,453v187M206,522h14M213,403v237M219,474h14M226,307v333M233,434h14M240,228v412M247,391h14M254,141v499M261,370h14M268,100v540M274,339h14M281,39v601M288,348h14M295,57v583M302,335h14M309,30v610M315,376h14M322,113v527M329,407h14M336,173v467M343,436h14M350,231v409M357,450h14M364,260v380M370,472h14M377,303v337M384,509h14M391,378v262M398,533h14M405,427v213M411,538h14M418,436v204M425,552h14M432,463v177M439,562h14M446,485v155M453,584h14M460,528v112M466,580h14M473,520v120M480,589h14M487,538v102M494,601h14M501,562v78M507,605h14M514,570v70M521,607h14M528,573v67M535,612h14M542,584v56M549,611h14M556,581v59M562,611h14M569,581v59M576,618h14M583,597v43M590,619h14M597,598v42M603,621h14M610,603v37M617,629h14M624,618v22M631,622h14M638,604v36M645,632h14M652,623v17M658,627h14M665,614v26M672,630h14M679,619v21M686,632h14M693,623v17M699,632h14M706,624v16M713,630h14M720,620v20M727,630h14M734,620v20M741,631h14M748,622v18M754,633h14M761,625v15M768,634h14M775,628v12M782,634h14M789,628v12M795,635h14M802,630v10M809,633h14M816,625v15M823,636h14M830,631v9M837,636h14M844,631v9M850,635h14M857,630v10M864,636h14M871,633v7M878,634h14M885,628v12M891,637h14M898,635v5M905,638h14M912,636v4M919,636h14M926,631v9M933,638h14M940,636v4M946,636h14M953,631v9M960,639h14M967,637v3M974,637h14M981,633v7" style="stroke: #00009a; stroke-width: 1;"></path>
    </g>
    <g>
     <path d="M104,639l9,-1l10,-2l9,-2l9,-3l10,-4l9,-7l9,-8l10,-10l9,-13l9,-16l10,-19l9,-21l9,-24l10,-26l9,-26l9,-25l10,-24l9,-21l10,-17l9,-12l9,-7l10,-1l9,4l9,8l10,14l9,16l9,19l10,20l9,20l9,20l10,19l9,18l9,16l10,15l9,13l9,11l10,9l9,9l9,7l10,6l9,5l9,4l10,4l9,3l9,3l10,2l9,2l9,2l10,2l9,1l9,2l10,1l9,1l9,1l10,1h9l9,1l10,1h9l9,1h10l9,1h9l10,1h9h10l9,1h9h10h9l9,1h10h9h9h10l9,1h9h10h9h9h10h9l9,1h10h9h9h10h9h9h10h9h9h10" style="fill: none; stroke: red; stroke-width: 2;"></path>
    </g>
   </svg>
   <g>
    <g transform="translate(0,640)">
     <path d="M0,0h960M0,-24V0M27,-12V0M55,-12V0M82,-12V0M110,-12V0M137,-24V0M165,-12V0M192,-12V0M219,-12V0M247,-12V0M274,-24V0M302,-12V0M329,-12V0M357,-12V0M384,-12V0M411,-24V0M439,-12V0M466,-12V0M494,-12V0M521,-12V0M549,-24V0M576,-12V0M603,-12V0M631,-12V0M658,-12V0M686,-24V0M713,-12V0M741,-12V0M768,-12V0M795,-12V0M823,-24V0M850,-12V0M878,-12V0M905,-12V0M933,-12V0M960,-24V0" style="stroke: black; stroke-width: 1;"></path>
     <g font-family="Arial" font-size="28" space="preserve" fill="black" text-anchor="middle">
      <text dy=".8em" transform="translate(0,1)">
       0
      </text>
      <text dy=".8em" transform="translate(137,1)">
       10
      </text>
      <text dy=".8em" transform="translate(274,1)">
       20
      </text>
      <text dy=".8em" transform="translate(411,1)">
       30
      </text>
      <text dy=".8em" transform="translate(549,1)">
       40
      </text>
      <text dy=".8em" transform="translate(686,1)">
       50
      </text>
      <text dy=".8em" transform="translate(823,1)">
       60
      </text>
      <text dy=".8em" transform="translate(960,1)">
       70
      </text>
     </g>
    </g>
    <g>
     <path d="M0,0v640M36,640H0M18,622H0M18,603H0M18,585H0M36,567H0M18,548H0M18,530H0M18,512H0M36,493H0M18,475H0M18,457H0M18,439H0M36,420H0M18,402H0M18,384H0M18,365H0M36,347H0M18,329H0M18,310H0M18,292H0M36,274H0M18,255H0M18,237H0M18,219H0M36,200H0M18,182H0M18,164H0M18,145H0M36,127H0M18,109H0M18,91H0M18,72H0M36,54H0M18,36H0M18,17H0" style="stroke: black; stroke-width: 1;"></path>
     <g font-family="Arial" font-size="28" space="preserve" fill="black" text-anchor="end">
      <text dy=".4em" transform="translate(-4,640)">
       0
      </text>
      <text dy=".4em" transform="translate(-4,567)">
       200
      </text>
      <text dy=".4em" transform="translate(-4,493)">
       400
      </text>
      <text dy=".4em" transform="translate(-4,420)">
       600
      </text>
      <text dy=".4em" transform="translate(-4,347)">
       800
      </text>
      <text dy=".4em" transform="translate(-4,274)">
       1000
      </text>
      <text dy=".4em" transform="translate(-4,200)">
       1200
      </text>
      <text dy=".4em" transform="translate(-4,127)">
       1400
      </text>
      <text dy=".4em" transform="translate(-4,54)">
       1600
      </text>
     </g>
    </g>
   </g>
  </g>
  <g transform="translate(120,4)" font-family="Arial" font-size="40" space="preserve">
   <text fill="black" text-anchor="middle" dy=".8em" transform="translate(480)">
    Signal-to-noise
   </text>
  </g>
  <g transform="translate(936,52)" font-family="Arial" font-size="25" space="preserve" fill="black">
   <path d="M0,0H240V128H0Z" style="fill: white; stroke: black; stroke-width: 1;"></path>
   <text text-anchor="middle" dy=".4em" transform="translate(120,16)">
    snr
   </text>
   <text text-anchor="start" dy=".4em" transform="translate(12,48)">
    Entries
   </text>
   <text text-anchor="end" dy=".4em" transform="translate(228,48)">
    100
   </text>
   <text text-anchor="start" dy=".4em" transform="translate(12,80)">
    Mean
   </text>
   <text text-anchor="end" dy=".4em" transform="translate(228,80)">
    25.15
   </text>
   <text text-anchor="start" dy=".4em" transform="translate(12,112)">
    Std Dev
   </text>
   <text text-anchor="end" dy=".4em" transform="translate(228,112)">
    8.988
   </text>
   <path d="M0,32h240" style="stroke: black; stroke-width: 1;"></path>
  </g>
 </g>
</svg>

<svg xmlns="http://www.w3.org/2000/svg" viewBox="0 0 1200 800" preserveAspectRatio="none" width="1200" height="800">
 <path d="M0,0H1200V800H0Z" style="fill: white;"></path>
 <g>
  <g transform="translate(120,80)">
   <path d="M0,0H960V640H0Z" style="fill: white; stroke: black; stroke-width: 1;"></path>
   <svg x="0" y="0" overflow="hidden" width="960" height="640" viewBox="0 0 960 640">
    <g>
     <path d="M82,639h14M89,639v1M96,638h14M103,636v4M110,636h14M117,632v8M123,633h14M130,627v13M137,633h14M144,627v13M151,620h14M158,600v40M165,607h14M172,574v66M178,588h14M185,537v103M192,547h14M199,453v187M206,522h14M213,403v237M219,474h14M226,307v333M233,434h14M240,228v412M247,391h14M254,141v499M261,370h14M268,100v540M274,339h14M281,39v601M288,348h14M295,57v583M302,335h14M309,30v610M315,376h14M322,113v527M329,407h14M336,173v467M343,436h14M350,231v409M357,450h14M364,260v380M370,472h14M377,303v337M384,509h14M391,378v262M398,533h14M405,427v213M411,538h14M418,436v204M425,552h14M432,463v177M439,562h14M446,485v155M453,584h14M460,528v112M466,580h14M473,520v120M480,589h14M487,538v102M494,601h14M501,562v78M507,605h14M514,570v70M521,607h14M528,573v67M535,612h14M542,584v56M549,611h14M556,581v59M562,611h14M569,581v59M576,618h14M583,597v43M590,619h14M597,598v42M603,621h14M610,603v37M617,629h14M624,618v22M631,622h14M638,604v36M645,632h14M652,623v17M658,627h14M665,614v26M672,630h14M679,619v21M686,632h14M693,623v17M699,632h14M706,624v16M713,630h14M720,620v20M727,630h14M734,620v20M741,631h14M748,622v18M754,633h14M761,625v15M768,634h14M775,628v12M782,634h14M789,628v12M795,635h14M802,630v10M809,633h14M816,625v15M823,636h14M830,631v9M837,636h14M844,631v9M850,635h14M857,630v10M864,636h14M871,633v7M878,634h14M885,628v12M891,637h14M898,635v5M905,638h14M912,636v4M919,636h14M926,631v9M933,638h14M940,636v4M946,636h14M953,631v9M960,639h14M967,637v3M974,637h14M981,633v7" style="stroke: #00009a; stroke-width: 1;"></path>
    </g>
    <g>
     <path d="M104,639L113,638L123,636L132,634L141,631L151,627L160,620L169,612L179,602L188,589L197,573L207,554L216,533L225,509L235,483L244,457L253,432L263,408L272,387L282,370L291,358L300,351L310,350L319,354L328,362L338,376L347,392L356,411L366,431L375,451L384,471L394,490L403,508L412,524L422,539L431,552L440,563L450,572L459,581L468,588L478,594L487,599L496,603L506,607L515,610L524,613L534,615L543,617L552,619L562,621L571,622L580,624L590,625L599,626L608,627L618,628L627,628L636,629L646,630L655,630L664,631L674,631L683,632L692,632L702,633L711,633L721,633L730,634L739,634L749,634L758,634L767,635L777,635L786,635L795,635L805,635L814,636L823,636L833,636L842,636L851,636L861,636L870,636L879,637L889,637L898,637L907,637L917,637L926,637L935,637L945,637L954,637L963,637L973,637" style="fill: none; stroke: red; stroke-width: 2;"></path>
    </g>
   </svg>
   <g>
    <g transform="translate(0,640)">
     <path d="M0,0h960M0,-24V0M27,-12V0M55,-12V0M82,-12V0M110,-12V0M137,-24V0M165,-12V0M192,-12V0M219,-12V0M247,-12V0M274,-24V0M302,-12V0M329,-12V0M357,-12V0M384,-12V0M411,-24V0M439,-12V0M466,-12V0M494,-12V0M521,-12V0M549,-24V0M576,-12V0M603,-12V0M631,-12V0M658,-12V0M686,-24V0M713,-12V0M741,-12V0M768,-12V0M795,-12V0M823,-24V0M850,-12V0M878,-12V0M905,-12V0M933,-12V0M960,-24V0" style="stroke: black; stroke-width: 1;"></path>
     <g font-family="Arial" font-size="28" space="preserve" fill="black" text-anchor="middle">
      <text dy=".8em" transform="translate(0,1)">
       0
      </text>
      <text dy=".8em" transform="translate(137,1)">
       10
      </text>
      <text dy=".8em" transform="translate(274,1)">
       20
      </text>
      <text dy=".8em" transform="translate(411,1)">
       30
      </text>
      <text dy=".8em" transform="translate(549,1)">
       40
      </text>
      <text dy=".8em" transform="translate(686,1)">
       50
      </text>
      <text dy=".8em" transform="translate(823,1)">
       60
      </text>
      <text dy=".8em" transform="translate(960,1)">
       70
      </text>
     </g>
    </g>
    <g>
     <path d="M0,0v640M36,640H0M18,622H0M18,603H0M18,585H0M36,567H0M18,548H0M18,530H0M18,512H0M36,493H0M18,475H0M18,457H0M18,439H0M36,420H0M18,402H0M18,384H0M18,365H0M36,347H0M18,329H0M18,310H0M18,292H0M36,274H0M18,255H0M18,237H0M18,219H0M36,200H0M18,182H0M18,164H0M18,145H0M36,127H0M18,109H0M18,91H0M18,72H0M36,54H0M18,36H0M18,17H0" style="stroke: black; stroke-width: 1;"></path>
     <g font-family="Arial" font-size="28" space="preserve" fill="black" text-anchor="end">
      <text dy=".4em" transform="translate(-4,640)">
       0
      </text>
      <text dy=".4em" transform="translate(-4,567)">
       200
      </text>
      <text dy=".4em" transform="translate(-4,493)">
       400
      </text>
      <text dy=".4em" transform="translate(-4,420)">
       600
      </text>
      <text dy=".4em" transform="translate(-4,347)">
       800
      </text>
      <text dy=".4em" transform="translate(-4,274)">
       1000
      </text>
      <text dy=".4em" transform="translate(-4,200)">
       1200
      </text>
      <text dy=".4em" transform="translate(-4,127)">
       1400
      </text>
      <text dy=".4em" transform="translate(-4,54)">
       1600
      </text>
     </g>
    </g>
   </g>
  </g>
  <g transform="translate(120,4)" font-family="Arial" font-size="40" space="preserve">
   <text fill="black" text-anchor="middle" dy=".8em" transform="translate(480)">
    Signal-to-noise
   </text>
  </g>
  <g transform="translate(936,52)" font-family="Arial" font-size="25" space="preserve" fill="black">
   <path d="M0,0H240V128H0Z" style="fill: white; stroke: black; stroke-width: 1;"></path>
   <text text-anchor="middle" dy=".4em" transform="translate(120,16)">
    snr
   </text>
   <text text-anchor="start" dy=".4em" transform="translate(12,48)">
    Entries
   </text>
   <text text-anchor="end" dy=".4em" transform="translate(228,48)">
    100
   </text>
   <text text-anchor="start" dy=".4em" transform="translate(12,80)">
    Mean
   </text>
   <text text-anchor="end" dy=".4em" transform="translate(228,80)">
    25.15
   </text>
   <text text-anchor="start" dy=".4em" transform="translate(12,112)">
    Std Dev
   </text>
   <text text-anchor="end" dy=".4em" transform="translate(228,112)">
    8.988
   </text>
   <path d="M0,32h240" style="stroke: black; stroke-width: 1;"></path>
  </g>
 </g>
</svg>
